X:33
T: Ritter und Magd
N: Q0055f
O: Suedosteuropa, Jugoslawien, Slawonien
R: Ballade, Betrug, Schwangerschaft, Tod, Selbstmord, Herr und Magd
M: 6/8
L: 1/16
K: F
C2 | C2F2F2F2G2A2 | A2G2G2G4
C2 | F2A2c2c2B2A2 | G6F4
cc | c4G2A4c2 | c2B2A2G4
C2 | F2A2c2c2B2A2 | G6F4

@@@ Tune index: 909
